X: 76
T:Miss Ann Cameron's Jig -- Balvenie
B:William Marshall's Scottish Airs, Melodies, Strathspeys, Reels &c (1822)
C:William Marshall
L:1/8
M:9/8
O:Scotland
R:Slip Jig
Z:Clark Bernst + Richard Robinson
%%Page:9 - 3
F:http://richardrobinson.tunebook.org.uk/tune/3919
%%TBL:{"version":1,"type":"tune","id":"3919"}
K:Bb
%%staves { 1 2 }
V:1
B2 b f2 d cAF | B2 b f2 d fga | b2 B f2 d cAF | G2 B (AB/c/)A !trill!B3 ::
fdB {d}e2 d cAF | fdB {d}e2 d efg | fga bfd cAF | G2 B (AB/c/)A !trill!B3 |
fdB {d}e2 d cAF | fdB {d}e2d efg | fga bfd cAF| G2 B (AB/c/)A !trill!B3 :|
V:2 middle=d clef=bass
b3 b3 f3 | B3 b3 b3 | B3 b3 f3 | e3 f3 B3 :| \
B3 B3 F3 | b3 B3 e3 | B3 B3 f3 | e3 f3 B3 | \
B3 B3 F3 | B3 B3 e3 | B3 B3 f3 | e3 f3 B3 |]

